public/svg/profiles/twitch.svg

<?xml version="1.0" encoding="UTF-8" standalone="no"?>
<svg width="50px" height="50px" viewBox="0 0 50 50" version="1.1" xmlns="http://www.w3.org/2000/svg" xmlns:xlink="http://www.w3.org/1999/xlink">
    <defs></defs>
    <g stroke="none" stroke-width="1" fill="none" fill-rule="evenodd">
        <g>
            <g>
                <path d="M25,42.1052632 C14.8263158,42.1052632 6.57894737,33.8578947 6.57894737,23.6842105 C6.57894737,13.5105263 14.8263158,5.26315789 25,5.26315789 C35.1736842,5.26315789 43.4210526,13.5105263 43.4210526,23.6842105 C43.4210526,33.8578947 35.1736842,42.1052632 25,42.1052632 L25,42.1052632 Z" id="Shape" fill="#FFFFFF"></path>
                <path d="M25,50 C11.1934211,50 0,38.8065789 0,25 C0,11.1934211 11.1934211,0 25,0 C38.8065789,0 50,11.1934211 50,25 C50,38.8065789 38.8065789,50 25,50 L25,50 Z M36.8421053,14.4736842 L17.7631579,14.4736842 L15.1315789,17.1052632 L15.1315789,32.8947368 L21.0526316,32.8947368 L21.0526316,36.1842105 L23.0263158,36.1842105 L26.3157895,32.8947368 L30.9210526,32.8947368 L36.8421053,26.9736842 L36.8421053,14.4736842 L36.8421053,14.4736842 Z M25.6578947,30.2631579 L23.6842105,32.2368421 L22.3684211,32.2368421 L22.3684211,30.2631579 L19.0789474,30.2631579 L19.0789474,16.4473684 L34.8684211,16.4473684 L34.8684211,25.6578947 L30.2631579,30.2631579 L25.6578947,30.2631579 L25.6578947,30.2631579 Z M23.0263158,25 L25.6578947,25 L25.6578947,19.7368421 L23.0263158,19.7368421 L23.0263158,25 L23.0263158,25 Z M28.2894737,25 L30.9210526,25 L30.9210526,19.7368421 L28.2894737,19.7368421 L28.2894737,25 L28.2894737,25 Z" id="Shape" fill="#5C4EA3"></path>
            </g>
        </g>
    </g>
</svg>

<svg width="50" height="50" viewBox="0 0 50 50" xmlns="http://www.w3.org/2000/svg"><g fill="none" fill-rule="evenodd"><path d="M25 42.105c-10.174 0-18.42-8.247-18.42-18.42C6.58 13.51 14.825 5.262 25 5.262c10.174 0 18.42 8.248 18.42 18.42 0 10.175-8.246 18.422-18.42 18.422z" fill="#FFF"/><path d="M25 50C11.193 50 0 38.807 0 25S11.193 0 25 0s25 11.193 25 25-11.193 25-25 25zm11.842-35.526h-19.08l-2.63 2.63v15.79h5.92v3.29h1.974l3.29-3.29h4.605l5.922-5.92v-12.5zm-11.184 15.79l-1.974 1.973h-1.316v-1.974h-3.29V16.447h15.79v9.21l-4.605 4.606h-4.605zM23.026 25h2.632v-5.263h-2.632V25zm5.263 0h2.63v-5.263h-2.63V25z" fill="#5C4EA3"/></g></svg>
